X: 20486
T: John Kelly's
R: reel
M: 4/4
K: Gmajor
D|:"G"(G2"g"G)G2 A"g"BG|AG"g"EG GA"g"Bd|dd "g"gd ed"g"Bd|dd "c"ed "D"dB"d"AE|
"G"(G2"g"G)G2 A"g"BG|AG"g"EG GA"g"Bd|dd "g"gd ed"g"BG|1 "D"(3ABA "d"G2"G"(G2"g"G)D:|2 "D"(3ABA "d"G2 "G"GA"g"Bd||
|:"C"(e2"c"e)e ed"c"Bc|"G"d2"g"de dB"g"AB|"C"c2"c"ec "G"B2"g"dB|"D"BA"d"AG AG"d"ED|
"G"(G2"g"G) G2A"g"BG|AG"g"EG GA"g"Bd|dd "g"gd ed"g"BG|1 "D"(3ABA "d"G2 "G"GA"g"Bd:|2 "D"(3ABA "d"G2 "G"(G2"g"G)D||

